icons/modern/3rd-place-medal.svg

<svg width="32" height="32" viewBox="0 0 32 32" fill="none" xmlns="http://www.w3.org/2000/svg">
<g filter="url(#filter0_iii_18_1616)">
<path d="M14.0346 3.55204L18.2991 10.8362L12.2834 12.5469C8.12828 11.172 5.68075 8.52904 4.20532 5.8125C3.58307 4.66681 3.58813 2.5625 6.06108 2.5625H12.3087C13.0189 2.5625 13.6758 2.93914 14.0346 3.55204Z" fill="#4686EC"/>
<path d="M14.0346 3.55204L18.2991 10.8362L12.2834 12.5469C8.12828 11.172 5.68075 8.52904 4.20532 5.8125C3.58307 4.66681 3.58813 2.5625 6.06108 2.5625H12.3087C13.0189 2.5625 13.6758 2.93914 14.0346 3.55204Z" fill="url(#paint0_radial_18_1616)"/>
<path d="M14.0346 3.55204L18.2991 10.8362L12.2834 12.5469C8.12828 11.172 5.68075 8.52904 4.20532 5.8125C3.58307 4.66681 3.58813 2.5625 6.06108 2.5625H12.3087C13.0189 2.5625 13.6758 2.93914 14.0346 3.55204Z" fill="url(#paint1_linear_18_1616)"/>
</g>
<g filter="url(#filter1_iii_18_1616)">
<path d="M17.8123 3.55204L13.5479 10.8362L19.5635 12.5469C23.7186 11.172 26.1662 8.52904 27.6416 5.8125C28.2639 4.66681 28.2588 2.5625 25.7858 2.5625H19.5383C18.828 2.5625 18.1711 2.93914 17.8123 3.55204Z" fill="#4686EC"/>
<path d="M17.8123 3.55204L13.5479 10.8362L19.5635 12.5469C23.7186 11.172 26.1662 8.52904 27.6416 5.8125C28.2639 4.66681 28.2588 2.5625 25.7858 2.5625H19.5383C18.828 2.5625 18.1711 2.93914 17.8123 3.55204Z" fill="url(#paint2_radial_18_1616)"/>
<path d="M17.8123 3.55204L13.5479 10.8362L19.5635 12.5469C23.7186 11.172 26.1662 8.52904 27.6416 5.8125C28.2639 4.66681 28.2588 2.5625 25.7858 2.5625H19.5383C18.828 2.5625 18.1711 2.93914 17.8123 3.55204Z" fill="url(#paint3_linear_18_1616)"/>
</g>
<path d="M17.8123 3.55204L13.5479 10.8362L19.5635 12.5469C23.7186 11.172 26.1662 8.52904 27.6416 5.8125C28.2639 4.66681 28.2588 2.5625 25.7858 2.5625H19.5383C18.828 2.5625 18.1711 2.93914 17.8123 3.55204Z" fill="url(#paint4_linear_18_1616)"/>
<circle cx="16.047" cy="20.1318" r="10.0477" fill="url(#paint5_linear_18_1616)"/>
<circle cx="16.047" cy="20.1318" r="10.0477" fill="url(#paint6_linear_18_1616)"/>
<circle cx="16.047" cy="20.1317" r="8.68832" fill="url(#paint7_linear_18_1616)"/>
<circle cx="16.047" cy="20.1317" r="7.58486" fill="url(#paint8_linear_18_1616)"/>
<circle cx="16.047" cy="20.1317" r="7.58486" fill="url(#paint9_radial_18_1616)"/>
<circle cx="16.047" cy="20.1317" r="7.58486" fill="url(#paint10_radial_18_1616)"/>
<circle cx="16.047" cy="20.1317" r="7.58486" fill="url(#paint11_radial_18_1616)"/>
<g filter="url(#filter2_iii_18_1616)">
<path d="M17.4591 18.675L18.5065 16.8648C18.6794 16.5597 18.6794 16.1936 18.5065 15.8885C18.3336 15.5834 18.0082 15.4004 17.6625 15.4004H14.5709C14.0319 15.4004 13.5947 15.8377 13.5947 16.3767C13.5947 16.9156 14.0319 17.3529 14.5709 17.3529H15.5427C15.7348 17.3529 15.8552 17.5607 15.7596 17.7273L15.2218 18.6648C15.0896 18.8275 15.0082 19.0411 15.0082 19.2648C15.0082 19.8038 15.4455 20.2411 15.9845 20.2411C16.5947 20.2411 17.093 20.7394 17.093 21.3495C17.093 21.9597 16.5947 22.458 15.9845 22.458C15.5167 22.458 15.0997 22.1631 14.9472 21.7258C14.7642 21.2173 14.215 20.9631 13.7065 21.136C13.1981 21.319 12.9336 21.8682 13.1167 22.3767C13.554 23.5868 14.7031 24.4004 15.9845 24.4004C17.6625 24.4004 19.0353 23.0377 19.0353 21.3495C19.0252 20.1902 18.3947 19.1936 17.4591 18.675Z" fill="#6C3F48"/>
</g>
<defs>
<filter id="filter0_iii_18_1616" x="3.61035" y="2.3625" width="14.8887" height="10.4344" filterUnits="userSpaceOnUse" color-interpolation-filters="sRGB">
<feFlood flood-opacity="0" result="BackgroundImageFix"/>
<feBlend mode="normal" in="SourceGraphic" in2="BackgroundImageFix" result="shape"/>
<feColorMatrix in="SourceAlpha" type="matrix" values="0 0 0 0 0 0 0 0 0 0 0 0 0 0 0 0 0 0 127 0" result="hardAlpha"/>
<feOffset dx="-0.2" dy="-0.2"/>
<feGaussianBlur stdDeviation="0.2"/>
<feComposite in2="hardAlpha" operator="arithmetic" k2="-1" k3="1"/>
<feColorMatrix type="matrix" values="0 0 0 0 0.317647 0 0 0 0 0.458824 0 0 0 0 0.886275 0 0 0 1 0"/>
<feBlend mode="normal" in2="shape" result="effect1_innerShadow_18_1616"/>
<feColorMatrix in="SourceAlpha" type="matrix" values="0 0 0 0 0 0 0 0 0 0 0 0 0 0 0 0 0 0 127 0" result="hardAlpha"/>
<feOffset dx="0.2" dy="0.2"/>
<feGaussianBlur stdDeviation="0.2"/>
<feComposite in2="hardAlpha" operator="arithmetic" k2="-1" k3="1"/>
<feColorMatrix type="matrix" values="0 0 0 0 0.317647 0 0 0 0 0.458824 0 0 0 0 0.886275 0 0 0 1 0"/>
<feBlend mode="normal" in2="effect1_innerShadow_18_1616" result="effect2_innerShadow_18_1616"/>
<feColorMatrix in="SourceAlpha" type="matrix" values="0 0 0 0 0 0 0 0 0 0 0 0 0 0 0 0 0 0 127 0" result="hardAlpha"/>
<feOffset dx="-0.25" dy="0.25"/>
<feGaussianBlur stdDeviation="0.25"/>
<feComposite in2="hardAlpha" operator="arithmetic" k2="-1" k3="1"/>
<feColorMatrix type="matrix" values="0 0 0 0 0.372549 0 0 0 0 0.607843 0 0 0 0 0.960784 0 0 0 1 0"/>
<feBlend mode="normal" in2="effect2_innerShadow_18_1616" result="effect3_innerShadow_18_1616"/>
</filter>
<filter id="filter1_iii_18_1616" x="13.2979" y="2.3625" width="14.8887" height="10.4344" filterUnits="userSpaceOnUse" color-interpolation-filters="sRGB">
<feFlood flood-opacity="0" result="BackgroundImageFix"/>
<feBlend mode="normal" in="SourceGraphic" in2="BackgroundImageFix" result="shape"/>
<feColorMatrix in="SourceAlpha" type="matrix" values="0 0 0 0 0 0 0 0 0 0 0 0 0 0 0 0 0 0 127 0" result="hardAlpha"/>
<feOffset dx="-0.2" dy="-0.2"/>
<feGaussianBlur stdDeviation="0.2"/>
<feComposite in2="hardAlpha" operator="arithmetic" k2="-1" k3="1"/>
<feColorMatrix type="matrix" values="0 0 0 0 0.317647 0 0 0 0 0.458824 0 0 0 0 0.886275 0 0 0 1 0"/>
<feBlend mode="normal" in2="shape" result="effect1_innerShadow_18_1616"/>
<feColorMatrix in="SourceAlpha" type="matrix" values="0 0 0 0 0 0 0 0 0 0 0 0 0 0 0 0 0 0 127 0" result="hardAlpha"/>
<feOffset dx="0.2" dy="0.2"/>
<feGaussianBlur stdDeviation="0.2"/>
<feComposite in2="hardAlpha" operator="arithmetic" k2="-1" k3="1"/>
<feColorMatrix type="matrix" values="0 0 0 0 0.317647 0 0 0 0 0.458824 0 0 0 0 0.886275 0 0 0 1 0"/>
<feBlend mode="normal" in2="effect1_innerShadow_18_1616" result="effect2_innerShadow_18_1616"/>
<feColorMatrix in="SourceAlpha" type="matrix" values="0 0 0 0 0 0 0 0 0 0 0 0 0 0 0 0 0 0 127 0" result="hardAlpha"/>
<feOffset dx="-0.25" dy="0.25"/>
<feGaussianBlur stdDeviation="0.25"/>
<feComposite in2="hardAlpha" operator="arithmetic" k2="-1" k3="1"/>
<feColorMatrix type="matrix" values="0 0 0 0 0.372549 0 0 0 0 0.607843 0 0 0 0 0.960784 0 0 0 1 0"/>
<feBlend mode="normal" in2="effect2_innerShadow_18_1616" result="effect3_innerShadow_18_1616"/>
</filter>
<filter id="filter2_iii_18_1616" x="12.7587" y="15.2004" width="6.47668" height="9.5" filterUnits="userSpaceOnUse" color-interpolation-filters="sRGB">
<feFlood flood-opacity="0" result="BackgroundImageFix"/>
<feBlend mode="normal" in="SourceGraphic" in2="BackgroundImageFix" result="shape"/>
<feColorMatrix in="SourceAlpha" type="matrix" values="0 0 0 0 0 0 0 0 0 0 0 0 0 0 0 0 0 0 127 0" result="hardAlpha"/>
<feOffset dx="-0.3" dy="0.3"/>
<feGaussianBlur stdDeviation="0.3"/>
<feComposite in2="hardAlpha" operator="arithmetic" k2="-1" k3="1"/>
<feColorMatrix type="matrix" values="0 0 0 0 0.270588 0 0 0 0 0.113725 0 0 0 0 0.0745098 0 0 0 1 0"/>
<feBlend mode="normal" in2="shape" result="effect1_innerShadow_18_1616"/>
<feColorMatrix in="SourceAlpha" type="matrix" values="0 0 0 0 0 0 0 0 0 0 0 0 0 0 0 0 0 0 127 0" result="hardAlpha"/>
<feOffset dx="0.2" dy="-0.2"/>
<feGaussianBlur stdDeviation="0.2"/>
<feComposite in2="hardAlpha" operator="arithmetic" k2="-1" k3="1"/>
<feColorMatrix type="matrix" values="0 0 0 0 0.490196 0 0 0 0 0.352941 0 0 0 0 0.321569 0 0 0 1 0"/>
<feBlend mode="normal" in2="effect1_innerShadow_18_1616" result="effect2_innerShadow_18_1616"/>
<feColorMatrix in="SourceAlpha" type="matrix" values="0 0 0 0 0 0 0 0 0 0 0 0 0 0 0 0 0 0 127 0" result="hardAlpha"/>
<feOffset dx="0.2" dy="0.2"/>
<feGaussianBlur stdDeviation="0.2"/>
<feComposite in2="hardAlpha" operator="arithmetic" k2="-1" k3="1"/>
<feColorMatrix type="matrix" values="0 0 0 0 0.270588 0 0 0 0 0.113725 0 0 0 0 0.0745098 0 0 0 1 0"/>
<feBlend mode="normal" in2="effect2_innerShadow_18_1616" result="effect3_innerShadow_18_1616"/>
</filter>
<radialGradient id="paint0_radial_18_1616" cx="0" cy="0" r="1" gradientUnits="userSpaceOnUse" gradientTransform="translate(13.103 11.8416) rotate(-123.321) scale(4.60352 17.1923)">
<stop stop-color="#3669D9"/>
<stop offset="1" stop-color="#3669D9" stop-opacity="0"/>
</radialGradient>
<linearGradient id="paint1_linear_18_1616" x1="6.58184" y1="2.02319" x2="8.37699" y2="6.49275" gradientUnits="userSpaceOnUse">
<stop stop-color="#3D89EC"/>
<stop offset="1" stop-color="#3D89EC" stop-opacity="0"/>
</linearGradient>
<radialGradient id="paint2_radial_18_1616" cx="0" cy="0" r="1" gradientUnits="userSpaceOnUse" gradientTransform="translate(18.7439 11.8416) rotate(-57.2648) scale(3.0487 6.68733)">
<stop stop-color="#3669D9"/>
<stop offset="1" stop-color="#3669D9" stop-opacity="0"/>
</radialGradient>
<linearGradient id="paint3_linear_18_1616" x1="25.2651" y1="2.02319" x2="23.4699" y2="6.49275" gradientUnits="userSpaceOnUse">
<stop stop-color="#3D89EC"/>
<stop offset="1" stop-color="#3D89EC" stop-opacity="0"/>
</linearGradient>
<linearGradient id="paint4_linear_18_1616" x1="15.7486" y1="7.06334" x2="16.0863" y2="7.24966" gradientUnits="userSpaceOnUse">
<stop stop-color="#1A6DD8"/>
<stop offset="1" stop-color="#1A6DD8" stop-opacity="0"/>
</linearGradient>
<linearGradient id="paint5_linear_18_1616" x1="23.797" y1="14.9375" x2="14.4495" y2="23.4842" gradientUnits="userSpaceOnUse">
<stop stop-color="#F6BC7F"/>
<stop offset="1" stop-color="#A76740"/>
</linearGradient>
<linearGradient id="paint6_linear_18_1616" x1="12.5359" y1="30.6677" x2="14.802" y2="17.5275" gradientUnits="userSpaceOnUse">
<stop stop-color="#B05B5B"/>
<stop offset="1" stop-color="#B05B5B" stop-opacity="0"/>
</linearGradient>
<linearGradient id="paint7_linear_18_1616" x1="23.9633" y1="18.6135" x2="16.047" y2="18.6135" gradientUnits="userSpaceOnUse">
<stop stop-color="#CD8858"/>
<stop offset="1" stop-color="#D28D59"/>
</linearGradient>
<linearGradient id="paint8_linear_18_1616" x1="11.2863" y1="22.1026" x2="23.9093" y2="18.2831" gradientUnits="userSpaceOnUse">
<stop stop-color="#D38E5F"/>
<stop offset="1" stop-color="#BE794E"/>
</linearGradient>
<radialGradient id="paint9_radial_18_1616" cx="0" cy="0" r="1" gradientUnits="userSpaceOnUse" gradientTransform="translate(18.9253 18.9818) rotate(156.644) scale(11.397 9.71148)">
<stop offset="0.837399" stop-color="#E5AC75" stop-opacity="0"/>
<stop offset="1" stop-color="#E5AC75"/>
</radialGradient>
<radialGradient id="paint10_radial_18_1616" cx="0" cy="0" r="1" gradientUnits="userSpaceOnUse" gradientTransform="translate(15.0782 21.0313) rotate(-41.2938) scale(8.96398 8.60716)">
<stop offset="0.909611" stop-color="#B36441" stop-opacity="0"/>
<stop offset="1" stop-color="#B36441"/>
</radialGradient>
<radialGradient id="paint11_radial_18_1616" cx="0" cy="0" r="1" gradientUnits="userSpaceOnUse" gradientTransform="translate(15.8282 19.5) rotate(37.9308) scale(8.43895 9.56333)">
<stop offset="0.925972" stop-color="#AB662B" stop-opacity="0"/>
<stop offset="1" stop-color="#AB662B"/>
</radialGradient>
</defs>
</svg>

<svg width="32" height="32" fill="none" xmlns="http://www.w3.org/2000/svg"><g filter="url(#a)"><path d="m14.035 3.552 4.264 7.284-6.016 1.71C8.128 11.173 5.681 8.53 4.205 5.814c-.622-1.146-.617-3.25 1.856-3.25h6.248a2 2 0 0 1 1.726.989Z" fill="#4686EC"/><path d="m14.035 3.552 4.264 7.284-6.016 1.71C8.128 11.173 5.681 8.53 4.205 5.814c-.622-1.146-.617-3.25 1.856-3.25h6.248a2 2 0 0 1 1.726.989Z" fill="url(#b)"/><path d="m14.035 3.552 4.264 7.284-6.016 1.71C8.128 11.173 5.681 8.53 4.205 5.814c-.622-1.146-.617-3.25 1.856-3.25h6.248a2 2 0 0 1 1.726.989Z" fill="url(#c)"/></g><g filter="url(#d)"><path d="m17.812 3.552-4.264 7.284 6.016 1.71c4.155-1.374 6.602-4.017 8.078-6.733.622-1.146.617-3.25-1.856-3.25h-6.248a2 2 0 0 0-1.726.989Z" fill="#4686EC"/><path d="m17.812 3.552-4.264 7.284 6.016 1.71c4.155-1.374 6.602-4.017 8.078-6.733.622-1.146.617-3.25-1.856-3.25h-6.248a2 2 0 0 0-1.726.989Z" fill="url(#e)"/><path d="m17.812 3.552-4.264 7.284 6.016 1.71c4.155-1.374 6.602-4.017 8.078-6.733.622-1.146.617-3.25-1.856-3.25h-6.248a2 2 0 0 0-1.726.989Z" fill="url(#f)"/></g><path d="m17.812 3.552-4.264 7.284 6.016 1.71c4.155-1.374 6.602-4.017 8.078-6.733.622-1.146.617-3.25-1.856-3.25h-6.248a2 2 0 0 0-1.726.989Z" fill="url(#g)"/><circle cx="16.047" cy="20.132" r="10.048" fill="url(#h)"/><circle cx="16.047" cy="20.132" r="10.048" fill="url(#i)"/><circle cx="16.047" cy="20.132" r="8.688" fill="url(#j)"/><circle cx="16.047" cy="20.132" r="7.585" fill="url(#k)"/><circle cx="16.047" cy="20.132" r="7.585" fill="url(#l)"/><circle cx="16.047" cy="20.132" r="7.585" fill="url(#m)"/><circle cx="16.047" cy="20.132" r="7.585" fill="url(#n)"/><g filter="url(#o)"><path d="m17.46 18.675 1.046-1.81a.984.984 0 0 0 0-.976.97.97 0 0 0-.843-.489H14.57a.976.976 0 0 0 0 1.953h.972a.25.25 0 0 1 .217.374l-.538.938a.96.96 0 0 0-.214.6c0 .539.438.976.977.976.61 0 1.108.498 1.108 1.108 0 .61-.498 1.109-1.108 1.109-.468 0-.885-.295-1.038-.732a.975.975 0 0 0-1.24-.59.966.966 0 0 0-.59 1.24 3.06 3.06 0 0 0 2.867 2.024 3.053 3.053 0 0 0 3.051-3.05 3.071 3.071 0 0 0-1.576-2.675Z" fill="#6C3F48"/></g><defs><linearGradient id="c" x1="6.582" y1="2.023" x2="8.377" y2="6.493" gradientUnits="userSpaceOnUse"><stop stop-color="#3D89EC"/><stop offset="1" stop-color="#3D89EC" stop-opacity="0"/></linearGradient><linearGradient id="f" x1="25.265" y1="2.023" x2="23.47" y2="6.493" gradientUnits="userSpaceOnUse"><stop stop-color="#3D89EC"/><stop offset="1" stop-color="#3D89EC" stop-opacity="0"/></linearGradient><linearGradient id="g" x1="15.749" y1="7.063" x2="16.086" y2="7.25" gradientUnits="userSpaceOnUse"><stop stop-color="#1A6DD8"/><stop offset="1" stop-color="#1A6DD8" stop-opacity="0"/></linearGradient><linearGradient id="h" x1="23.797" y1="14.938" x2="14.45" y2="23.484" gradientUnits="userSpaceOnUse"><stop stop-color="#F6BC7F"/><stop offset="1" stop-color="#A76740"/></linearGradient><linearGradient id="i" x1="12.536" y1="30.668" x2="14.802" y2="17.527" gradientUnits="userSpaceOnUse"><stop stop-color="#B05B5B"/><stop offset="1" stop-color="#B05B5B" stop-opacity="0"/></linearGradient><linearGradient id="j" x1="23.963" y1="18.613" x2="16.047" y2="18.613" gradientUnits="userSpaceOnUse"><stop stop-color="#CD8858"/><stop offset="1" stop-color="#D28D59"/></linearGradient><linearGradient id="k" x1="11.286" y1="22.103" x2="23.909" y2="18.283" gradientUnits="userSpaceOnUse"><stop stop-color="#D38E5F"/><stop offset="1" stop-color="#BE794E"/></linearGradient><radialGradient id="b" cx="0" cy="0" r="1" gradientUnits="userSpaceOnUse" gradientTransform="rotate(-123.321 9.745 2.387) scale(4.60352 17.1923)"><stop stop-color="#3669D9"/><stop offset="1" stop-color="#3669D9" stop-opacity="0"/></radialGradient><radialGradient id="e" cx="0" cy="0" r="1" gradientUnits="userSpaceOnUse" gradientTransform="rotate(-57.265 20.217 -11.245) scale(3.0487 6.68733)"><stop stop-color="#3669D9"/><stop offset="1" stop-color="#3669D9" stop-opacity="0"/></radialGradient><radialGradient id="l" cx="0" cy="0" r="1" gradientUnits="userSpaceOnUse" gradientTransform="rotate(156.644 7.501 11.447) scale(11.397 9.71148)"><stop offset=".837" stop-color="#E5AC75" stop-opacity="0"/><stop offset="1" stop-color="#E5AC75"/></radialGradient><radialGradient id="m" cx="0" cy="0" r="1" gradientUnits="userSpaceOnUse" gradientTransform="rotate(-41.294 35.446 -9.492) scale(8.96398 8.60716)"><stop offset=".91" stop-color="#B36441" stop-opacity="0"/><stop offset="1" stop-color="#B36441"/></radialGradient><radialGradient id="n" cx="0" cy="0" r="1" gradientUnits="userSpaceOnUse" gradientTransform="matrix(6.65625 5.1875 -5.87867 7.54311 15.828 19.5)"><stop offset=".926" stop-color="#AB662B" stop-opacity="0"/><stop offset="1" stop-color="#AB662B"/></radialGradient><filter id="a" x="3.61" y="2.362" width="14.889" height="10.434" filterUnits="userSpaceOnUse" color-interpolation-filters="sRGB"><feFlood flood-opacity="0" result="BackgroundImageFix"/><feBlend in="SourceGraphic" in2="BackgroundImageFix" result="shape"/><feColorMatrix in="SourceAlpha" values="0 0 0 0 0 0 0 0 0 0 0 0 0 0 0 0 0 0 127 0" result="hardAlpha"/><feOffset dx="-.2" dy="-.2"/><feGaussianBlur stdDeviation=".2"/><feComposite in2="hardAlpha" operator="arithmetic" k2="-1" k3="1"/><feColorMatrix values="0 0 0 0 0.317647 0 0 0 0 0.458824 0 0 0 0 0.886275 0 0 0 1 0"/><feBlend in2="shape" result="effect1_innerShadow_18_1616"/><feColorMatrix in="SourceAlpha" values="0 0 0 0 0 0 0 0 0 0 0 0 0 0 0 0 0 0 127 0" result="hardAlpha"/><feOffset dx=".2" dy=".2"/><feGaussianBlur stdDeviation=".2"/><feComposite in2="hardAlpha" operator="arithmetic" k2="-1" k3="1"/><feColorMatrix values="0 0 0 0 0.317647 0 0 0 0 0.458824 0 0 0 0 0.886275 0 0 0 1 0"/><feBlend in2="effect1_innerShadow_18_1616" result="effect2_innerShadow_18_1616"/><feColorMatrix in="SourceAlpha" values="0 0 0 0 0 0 0 0 0 0 0 0 0 0 0 0 0 0 127 0" result="hardAlpha"/><feOffset dx="-.25" dy=".25"/><feGaussianBlur stdDeviation=".25"/><feComposite in2="hardAlpha" operator="arithmetic" k2="-1" k3="1"/><feColorMatrix values="0 0 0 0 0.372549 0 0 0 0 0.607843 0 0 0 0 0.960784 0 0 0 1 0"/><feBlend in2="effect2_innerShadow_18_1616" result="effect3_innerShadow_18_1616"/></filter><filter id="d" x="13.298" y="2.362" width="14.889" height="10.434" filterUnits="userSpaceOnUse" color-interpolation-filters="sRGB"><feFlood flood-opacity="0" result="BackgroundImageFix"/><feBlend in="SourceGraphic" in2="BackgroundImageFix" result="shape"/><feColorMatrix in="SourceAlpha" values="0 0 0 0 0 0 0 0 0 0 0 0 0 0 0 0 0 0 127 0" result="hardAlpha"/><feOffset dx="-.2" dy="-.2"/><feGaussianBlur stdDeviation=".2"/><feComposite in2="hardAlpha" operator="arithmetic" k2="-1" k3="1"/><feColorMatrix values="0 0 0 0 0.317647 0 0 0 0 0.458824 0 0 0 0 0.886275 0 0 0 1 0"/><feBlend in2="shape" result="effect1_innerShadow_18_1616"/><feColorMatrix in="SourceAlpha" values="0 0 0 0 0 0 0 0 0 0 0 0 0 0 0 0 0 0 127 0" result="hardAlpha"/><feOffset dx=".2" dy=".2"/><feGaussianBlur stdDeviation=".2"/><feComposite in2="hardAlpha" operator="arithmetic" k2="-1" k3="1"/><feColorMatrix values="0 0 0 0 0.317647 0 0 0 0 0.458824 0 0 0 0 0.886275 0 0 0 1 0"/><feBlend in2="effect1_innerShadow_18_1616" result="effect2_innerShadow_18_1616"/><feColorMatrix in="SourceAlpha" values="0 0 0 0 0 0 0 0 0 0 0 0 0 0 0 0 0 0 127 0" result="hardAlpha"/><feOffset dx="-.25" dy=".25"/><feGaussianBlur stdDeviation=".25"/><feComposite in2="hardAlpha" operator="arithmetic" k2="-1" k3="1"/><feColorMatrix values="0 0 0 0 0.372549 0 0 0 0 0.607843 0 0 0 0 0.960784 0 0 0 1 0"/><feBlend in2="effect2_innerShadow_18_1616" result="effect3_innerShadow_18_1616"/></filter><filter id="o" x="12.759" y="15.2" width="6.477" height="9.5" filterUnits="userSpaceOnUse" color-interpolation-filters="sRGB"><feFlood flood-opacity="0" result="BackgroundImageFix"/><feBlend in="SourceGraphic" in2="BackgroundImageFix" result="shape"/><feColorMatrix in="SourceAlpha" values="0 0 0 0 0 0 0 0 0 0 0 0 0 0 0 0 0 0 127 0" result="hardAlpha"/><feOffset dx="-.3" dy=".3"/><feGaussianBlur stdDeviation=".3"/><feComposite in2="hardAlpha" operator="arithmetic" k2="-1" k3="1"/><feColorMatrix values="0 0 0 0 0.270588 0 0 0 0 0.113725 0 0 0 0 0.0745098 0 0 0 1 0"/><feBlend in2="shape" result="effect1_innerShadow_18_1616"/><feColorMatrix in="SourceAlpha" values="0 0 0 0 0 0 0 0 0 0 0 0 0 0 0 0 0 0 127 0" result="hardAlpha"/><feOffset dx=".2" dy="-.2"/><feGaussianBlur stdDeviation=".2"/><feComposite in2="hardAlpha" operator="arithmetic" k2="-1" k3="1"/><feColorMatrix values="0 0 0 0 0.490196 0 0 0 0 0.352941 0 0 0 0 0.321569 0 0 0 1 0"/><feBlend in2="effect1_innerShadow_18_1616" result="effect2_innerShadow_18_1616"/><feColorMatrix in="SourceAlpha" values="0 0 0 0 0 0 0 0 0 0 0 0 0 0 0 0 0 0 127 0" result="hardAlpha"/><feOffset dx=".2" dy=".2"/><feGaussianBlur stdDeviation=".2"/><feComposite in2="hardAlpha" operator="arithmetic" k2="-1" k3="1"/><feColorMatrix values="0 0 0 0 0.270588 0 0 0 0 0.113725 0 0 0 0 0.0745098 0 0 0 1 0"/><feBlend in2="effect2_innerShadow_18_1616" result="effect3_innerShadow_18_1616"/></filter></defs></svg>
